X: 39739
T: Thadelo's
R: barndance
M: 4/4
K: Dmajor
A3B AFDE|F2FE F2FG|A2AB AFDF|(3GAG Ez E3F|
GzGF GFEF|GAGF G2B2|A2AB AGFE|D8:|
f4 e2de|d2A2 A2dA|(3B^B^c BA (3B^B^c dB|c2 A2 A4|
f2gf e2fe|d2 A2 A2dA|(3B^B^c BA (3B^B^c dA|e2d2 d4:|

